teams/dark/158.svg

<svg xmlns="http://www.w3.org/2000/svg" viewBox="0 0 300 300"><title>Milwaukee Brewers cap on dark logo</title><path fill="#ffc72c" d="M245.74 108.03v27.74c0 23.15-3.79 37.18-21.97 75.62-19.14 40.47-42.75 52.49-70.99 52.49-18.57 0-36.03-6.12-50.14-17.42l-.13.05-3.15-2.82-.58-.51c-4-3.58-7.42-7.43-10.36-11.38-.25-.33-.49-.65-.73-.99-.04-.05-.09-.11-.12-.17-.18-.24-.35-.48-.52-.72a81 81 0 0 1-4.65-7.38c-.16-.27-.32-.55-.46-.82-4.65-8.37-7.71-16.7-10.29-23.67-.74-1.99-1.43-3.87-2.11-5.62-5.33-13.69-15.65-40.45-20.64-53.93-5.19-14-5.99-23.94-2.66-33.23 3.56-9.95 11.52-17.91 22.38-26.79 10.88-8.9 20.21-16.29 33.11-25.61 8.08-5.83 16.74-8.92 25.06-8.92 3.52 0 6.85.57 9.9 1.68.55.2 1.15.42 1.94.72 2.8 1.06 5.29 2.5 7.44 4.27.22-.13.43-.25.64-.38 5.93-3.46 12.58-5.29 19.24-5.29 5.27 0 10.42 1.14 14.93 3.29.97.47 1.54.75 2.19 1.1.32.16.66.34 1.13.59 3.54 1.81 6.58 4.13 9.04 6.83 3.94-1.32 7.76-1.99 11.41-1.99 5.56 0 10.75 1.52 15.45 4.51l1.12.71c2.14 1.37 3.23 2.05 4.89 3.22 12.73 8.81 19.62 18.56 19.62 44.82"/><path fill="#13294b" d="M221.42 70c-1.79-1.24-2.83-1.89-5.75-3.75-5.67-3.62-13.19-4.81-23.45-.22-.68.3-1.31.58-1.94.86-2.28-4.68-6.33-7.81-9.83-9.6-1.44-.74-1.83-.97-3.13-1.59-6.97-3.33-17.03-3.81-26.44 1.68-1.89 1.1-4.37 2.57-6.49 3.82-2.17-3.71-5.52-5.94-8.66-7.12-.75-.28-1.33-.49-1.86-.68-6.94-2.53-17.09-1.19-27.29 6.17-12.15 8.78-21.06 15.76-32.71 25.3-21.31 17.44-25.84 27.46-17.2 50.77 4.75 12.81 14.82 38.96 20.59 53.81 3.31 8.51 6.77 19.54 13.01 30.19.57.97 1.16 1.94 1.79 2.91.16.25.34.5.5.75 2.84 4.31 6.21 8.47 10.27 12.34.32.31.65.63.98.93.17.15.32.31.49.46l.02-.02c12.72 11.58 29.56 18.62 48.47 18.62 34.69 0 62.81-28.13 62.81-62.8v-.07c0-33.11-26.84-59.95-59.95-59.95-17.99 0-36.06 10.4-46.72 26.8-4.53-11.09-14.23-34.82-21.53-52.6-3.93-9.57-3.03-14.41 2.98-19.98 3.07-2.84 6.8-5.69 10.94-8.5 4.23-2.87 9-1.18 9 4.42v59.25c9.66-9.75 21.51-16.1 36.69-18.9l-.23-48.91c1.08-.67 2.09-1.29 2.85-1.73 3.87-2.25 6.64.24 6.64 3.85v45.53c.24 0 .48-.01.72-.01 12.79 0 24.78 3.48 35.1 9.51V80.5c.97-.39 1.88-.76 2.58-1.04 3.88-1.54 6.5.86 6.5 4.37s-.27 54.11-.27 54.11c14.25 11.75 23.5 29.05 24.95 48.56 6.8-14.47 11.64-27.94 11.64-50.73v-27.74c0-23.1-5.24-30.54-16.06-38.03m-66.33 87.41c20 0 36.2 16.21 36.2 36.2s-16.21 36.2-36.2 36.2-36.2-16.21-36.2-36.2 16.21-36.2 36.2-36.2"/><path fill="#fff" d="M222.19 243.63h-2.63v7.18h-1.78v-7.18h-2.63v-1.56h7.04Zm11.96 7.18h-1.78v-6.95h-.05l-2.53 6.95h-1.73l-2.43-6.95h-.05v6.95h-1.79v-8.74h3.1l2.03 5.7h.05l2.12-5.7h3.06Zm-106.51-57.19c0-6.57 2.31-12.6 6.17-17.34 7.68 10.23 7.68 24.43 0 34.67-3.86-4.74-6.17-10.76-6.17-17.33m10.97 21.95c10.1-12.84 10.1-31.08 0-43.92 4.59-3.46 10.3-5.52 16.48-5.52s11.89 2.06 16.48 5.52c-10.1 12.84-10.1 31.08 0 43.92a27.3 27.3 0 0 1-16.48 5.52c-6.18 0-11.89-2.06-16.48-5.52m37.77-4.62c-7.68-10.23-7.68-24.43 0-34.67 3.86 4.74 6.18 10.77 6.18 17.34s-2.32 12.6-6.18 17.33"/></svg>

<svg width="300" height="300" viewBox="0 0 300 300" fill="none" xmlns="http://www.w3.org/2000/svg">
<path d="M245.74 108.03V135.77C245.74 158.92 241.95 172.95 223.77 211.39C204.63 251.86 181.02 263.88 152.78 263.88C134.21 263.88 116.75 257.76 102.64 246.46L102.51 246.51L99.36 243.69L98.78 243.18C94.78 239.6 91.36 235.75 88.42 231.8C88.17 231.47 87.93 231.15 87.69 230.81C87.65 230.76 87.6 230.7 87.57 230.64C87.39 230.4 87.22 230.16 87.05 229.92C85.3686 227.545 83.8163 225.082 82.4 222.54C82.24 222.27 82.08 221.99 81.94 221.72C77.29 213.35 74.23 205.02 71.65 198.05C70.91 196.06 70.22 194.18 69.54 192.43C64.21 178.74 53.89 151.98 48.9 138.5C43.71 124.5 42.91 114.56 46.24 105.27C49.8 95.32 57.76 87.36 68.62 78.48C79.5 69.58 88.83 62.19 101.73 52.87C109.81 47.04 118.47 43.95 126.79 43.95C130.31 43.95 133.64 44.52 136.69 45.63C137.24 45.83 137.84 46.05 138.63 46.35C141.43 47.41 143.92 48.85 146.07 50.62C146.29 50.49 146.5 50.37 146.71 50.24C152.64 46.78 159.29 44.95 165.95 44.95C171.22 44.95 176.37 46.09 180.88 48.24C181.85 48.71 182.42 48.99 183.07 49.34C183.39 49.5 183.73 49.68 184.2 49.93C187.74 51.74 190.78 54.06 193.24 56.76C197.18 55.44 201 54.77 204.65 54.77C210.21 54.77 215.4 56.29 220.1 59.28L221.22 59.99C223.36 61.36 224.45 62.04 226.11 63.21C238.84 72.02 245.73 81.77 245.73 108.03" fill="#FFC72C"/>
<path d="M221.42 70C219.63 68.76 218.59 68.11 215.67 66.25C210 62.63 202.48 61.44 192.22 66.03C191.54 66.33 190.91 66.61 190.28 66.89C188 62.21 183.95 59.08 180.45 57.29C179.01 56.55 178.62 56.32 177.32 55.7C170.35 52.37 160.29 51.89 150.88 57.38C148.99 58.48 146.51 59.95 144.39 61.2C142.22 57.49 138.87 55.26 135.73 54.08C134.98 53.8 134.4 53.59 133.87 53.4C126.93 50.87 116.78 52.21 106.58 59.57C94.43 68.35 85.52 75.33 73.87 84.87C52.56 102.31 48.03 112.33 56.67 135.64C61.42 148.45 71.49 174.6 77.26 189.45C80.57 197.96 84.03 208.99 90.27 219.64C90.84 220.61 91.43 221.58 92.06 222.55C92.22 222.8 92.4 223.05 92.56 223.3C95.4 227.61 98.77 231.77 102.83 235.64C103.15 235.95 103.48 236.27 103.81 236.57C103.98 236.72 104.13 236.88 104.3 237.03L104.32 237.01C117.04 248.59 133.88 255.63 152.79 255.63C187.48 255.63 215.6 227.5 215.6 192.83V192.76C215.6 159.65 188.76 132.81 155.65 132.81C137.66 132.81 119.59 143.21 108.93 159.61C104.4 148.52 94.7 124.79 87.4 107.01C83.47 97.44 84.37 92.6 90.38 87.03C93.45 84.19 97.18 81.34 101.32 78.53C105.55 75.66 110.32 77.35 110.32 82.95V142.2C119.98 132.45 131.83 126.1 147.01 123.3L146.78 74.39C147.86 73.72 148.87 73.1 149.63 72.66C153.5 70.41 156.27 72.9 156.27 76.51V122.04C156.51 122.04 156.75 122.03 156.99 122.03C169.78 122.03 181.77 125.51 192.09 131.54V80.5C193.06 80.11 193.97 79.74 194.67 79.46C198.55 77.92 201.17 80.32 201.17 83.83C201.17 87.34 200.9 137.94 200.9 137.94C215.15 149.69 224.4 166.99 225.85 186.5C232.65 172.03 237.49 158.56 237.49 135.77V108.03C237.49 84.93 232.25 77.49 221.43 70M155.1 157.41C175.1 157.41 191.3 173.62 191.3 193.61C191.3 213.6 175.09 229.81 155.1 229.81C135.11 229.81 118.9 213.6 118.9 193.61C118.9 173.62 135.11 157.41 155.1 157.41Z" fill="#13294B"/>
<path d="M127.64 193.62C127.64 187.05 129.95 181.02 133.81 176.28C141.49 186.51 141.49 200.71 133.81 210.95C129.95 206.21 127.64 200.19 127.64 193.62ZM138.61 215.57C148.71 202.73 148.71 184.49 138.61 171.65C143.2 168.19 148.91 166.13 155.09 166.13C161.27 166.13 166.98 168.19 171.57 171.65C161.47 184.49 161.47 202.73 171.57 215.57C166.825 219.156 161.038 221.094 155.09 221.09C148.91 221.09 143.2 219.03 138.61 215.57ZM176.38 210.95C168.7 200.72 168.7 186.52 176.38 176.28C180.24 181.02 182.56 187.05 182.56 193.62C182.56 200.19 180.24 206.22 176.38 210.95Z" fill="white"/>
</svg>
